brandFactory_export/3.Masa/Movil pausa_3Masa.svg

<?xml version="1.0" encoding="UTF-8"?>
<svg width="24px" height="24px" viewBox="0 0 24 24" version="1.1" xmlns="http://www.w3.org/2000/svg" xmlns:xlink="http://www.w3.org/1999/xlink">
    <title>3.Masa/Movil pausa_3Masa</title>
    <g id="Symbols" stroke="none" stroke-width="1" fill="none" fill-rule="evenodd">
        <g id="3.Masa/Movil-pausa_3Masa" fill="#5CB615" fill-rule="nonzero">
            <path d="M7.14285714,17.6 C10.9983193,17.6 12.7932773,15.8218487 12.7932773,12.0033613 C12.7932773,8.18487395 10.9983193,6.40336134 7.14285714,6.40336134 C3.2907563,6.40336134 1.49579832,8.18151261 1.49579832,12.0033613 C1.49579832,15.8218487 3.2907563,17.6 7.14285714,17.6 Z M22.5109244,1.17647059 C23.2806723,1.94285714 23.6571429,3.01848739 23.6571429,4.4605042 L23.6571429,19.2268908 C23.6571429,20.6857143 23.2806723,21.7647059 22.5008403,22.5310924 C21.7277311,23.287395 20.6420168,23.6571429 19.1831933,23.6571429 L11.7310924,23.6571429 C10.2689076,23.6571429 9.18655462,23.287395 8.41680672,22.5310924 C7.72436975,21.8521008 7.3512605,20.9243697 7.27394958,19.7008403 L7.27394958,19.0420168 C7.2302521,19.0420168 7.18655462,19.0453782 7.1394958,19.0453782 C2.6487395,19.0453782 0.0302521008,16.8 0.0302521008,12.0033613 C0.0302521008,7.20336134 2.6487395,4.95798319 7.1394958,4.95798319 C7.17983193,4.95798319 7.22016807,4.96134454 7.2605042,4.96134454 L7.2605042,4.4605042 C7.2605042,3.03865546 7.63697479,1.9697479 8.40672269,1.19663866 C9.18991597,0.413445378 10.2756303,0.0302521008 11.7310924,0.0302521008 L19.1831933,0.0302521008 C20.6487395,0.0336134454 21.7378151,0.406722689 22.5109244,1.17647059 Z M15.4588235,17.7915966 C14.6689076,17.7915966 14.194958,18.2621849 14.194958,19.0487395 C14.194958,19.4319328 14.3058824,19.7411765 14.5243697,19.9596639 C14.7462185,20.1848739 15.0689076,20.302521 15.4588235,20.302521 C15.8487395,20.302521 16.1714286,20.1848739 16.3932773,19.9596639 C16.6117647,19.7378151 16.7226891,19.4319328 16.7226891,19.0487395 C16.7226891,18.2621849 16.2521008,17.7915966 15.4588235,17.7915966 Z M4.95798319,8.60504202 C5.36134454,8.60504202 5.68739496,8.92773109 5.68739496,9.32773109 L5.68739496,14.9815126 C5.68739496,15.3815126 5.36134454,15.707563 4.95798319,15.707563 C4.55462185,15.707563 4.22857143,15.3848739 4.22857143,14.9815126 L4.22857143,9.33109244 C4.22857143,8.93109244 4.55798319,8.60504202 4.95798319,8.60504202 Z M9.09915966,8.58823529 C9.50252101,8.58823529 9.82857143,8.91428571 9.82857143,9.31092437 L9.82857143,14.9647059 C9.82857143,15.3647059 9.50252101,15.6907563 9.09915966,15.6907563 C8.69579832,15.6907563 8.3697479,15.3680672 8.3697479,14.9647059 L8.3697479,9.31092437 C8.3697479,8.91092437 8.69579832,8.58823529 9.09915966,8.58823529 Z" id="Movil-pausa_3Masa"></path>
        </g>
    </g>
</svg>

<svg width="24" height="24" viewBox="0 0 24 24" xmlns="http://www.w3.org/2000/svg"><path d="M7.143 17.6c3.855 0 5.65-1.778 5.65-5.597 0-3.818-1.795-5.6-5.65-5.6-3.852 0-5.647 1.779-5.647 5.6 0 3.819 1.795 5.597 5.647 5.597zM22.51 1.176c.77.767 1.146 1.842 1.146 3.285v14.766c0 1.459-.376 2.538-1.156 3.304-.773.756-1.859 1.126-3.318 1.126h-7.452c-1.462 0-2.544-.37-3.314-1.126-.693-.679-1.066-1.607-1.143-2.83v-.659c-.044 0-.087.003-.135.003C2.65 19.045.03 16.8.03 12.003c0-4.8 2.619-7.045 7.11-7.045l.12.003v-.5c0-1.422.377-2.491 1.147-3.264C9.19.413 10.276.03 11.73.03h7.452c1.466.004 2.555.377 3.328 1.146zm-7.052 16.616c-.79 0-1.264.47-1.264 1.257 0 .383.11.692.33.91.221.226.544.344.934.344s.712-.118.934-.343c.219-.222.33-.528.33-.911 0-.787-.47-1.257-1.264-1.257zM4.958 8.605c.403 0 .73.323.73.723v5.654c0 .4-.327.726-.73.726a.726.726 0 01-.73-.726v-5.65c0-.4.33-.727.73-.727zm4.141-.017c.404 0 .73.326.73.723v5.654c0 .4-.326.726-.73.726a.726.726 0 01-.73-.726V9.31c0-.4.327-.723.73-.723z" fill="#5CB615" fill-rule="nonzero"/></svg>
